public/three-leaves.svg

<svg xmlns="http://www.w3.org/2000/svg" viewBox="0 0 512 512" style="height: 512px; width: 512px;"><path d="M0 0h512v512H0z" fill="#000" fill-opacity="1"></path><g class="" transform="translate(0,0)" style=""><path d="M161.563 19.28c10.093 10.734 16.743 23.678 20.562 37.657 6.202 22.707 5.806 48.148 3.72 74.094-4.176 51.894-14.58 106.512-2.44 140.407 11.396 31.814 29.668 50.71 49.94 60 8.72 3.998 17.9 6.21 27.186 6.782 22.195-65.084 17.46-148.144-19.06-204.283 48.352 48.234 71.19 121.068 56.436 197.407l-8.78 3.53c2.723-.808 5.42-1.763 8.093-2.843 41.783-16.87 75.975-66.253 61.75-138.655-6.536-33.265-28.966-80.165-66.5-116.5-32.472-31.432-75.827-55.212-130.908-57.594zM445.53 202.813c-.84 12.1-4.638 23.528-10.56 33.907-10.353 18.14-26.448 33.757-43.876 48.593-34.856 29.67-75.057 57.156-88.313 85.218-12.555 26.583-12.884 49.252-6.186 67.283 2.92 7.86 7.21 14.894 12.625 20.968 53.708-26.787 101.73-80.91 113.81-138.03.076 59.646-30.63 118.687-86.624 156.906 35.802 14.545 86.282 5.034 121.72-47.75 16.418-24.456 31.558-67.3 30.812-112.875-.634-38.688-12.264-79.23-43.407-114.217zm-424.874 73.47c-9.483 45.878.708 86.832 19.5 120.656 22.136 39.84 56.682 69.376 83.125 82.343 57.07 27.988 105.514 10.968 129.25-19.53-67.59-5.1-123.692-40.873-153.436-92.563 39.02 43.428 107.658 66.29 167.562 62.625 1.654-7.963 1.87-16.204.47-24.468-3.214-18.965-14.87-38.447-39.032-55.188-25.505-17.67-74.045-21.36-119.063-29.625-22.508-4.13-44.247-9.59-62.28-20.124-10.323-6.03-19.314-14.06-26.094-24.125z" fill="#fff" fill-opacity="1"></path></g></svg>

<?xml version="1.0" encoding="UTF-8" standalone="no"?>
<!DOCTYPE svg PUBLIC "-//W3C//DTD SVG 1.1//EN" "http://www.w3.org/Graphics/SVG/1.1/DTD/svg11.dtd">
<svg width="100%" height="100%" viewBox="0 0 512 512" version="1.1" xmlns="http://www.w3.org/2000/svg" xmlns:xlink="http://www.w3.org/1999/xlink" xml:space="preserve" xmlns:serif="http://www.serif.com/" style="fill-rule:evenodd;clip-rule:evenodd;stroke-linejoin:round;stroke-miterlimit:2;">
    <g>
        <path d="M161.563,19.28C171.656,30.014 178.306,42.958 182.125,56.937C188.327,79.644 187.931,105.085 185.845,131.031C181.669,182.925 171.265,237.543 183.405,271.438C194.801,303.252 213.073,322.148 233.345,331.438C242.065,335.436 251.245,337.648 260.531,338.22C282.726,273.136 277.991,190.076 241.471,133.937C289.823,182.171 312.661,255.005 297.907,331.344L289.127,334.874C291.85,334.066 294.547,333.111 297.22,332.031C339.003,315.161 373.195,265.778 358.97,193.376C352.434,160.111 330.004,113.211 292.47,76.876C259.998,45.444 216.643,21.664 161.562,19.282L161.563,19.28ZM445.53,202.813C444.69,214.913 440.892,226.341 434.97,236.72C424.617,254.86 408.522,270.477 391.094,285.313C356.238,314.983 316.037,342.469 302.781,370.531C290.226,397.114 289.897,419.783 296.595,437.814C299.515,445.674 303.805,452.708 309.22,458.782C362.928,431.995 410.95,377.872 423.03,320.752C423.106,380.398 392.4,439.439 336.406,477.658C372.208,492.203 422.688,482.692 458.126,429.908C474.544,405.452 489.684,362.608 488.938,317.033C488.304,278.345 476.674,237.803 445.531,202.816L445.53,202.813ZM20.656,276.283C11.173,322.161 21.364,363.115 40.156,396.939C62.292,436.779 96.838,466.315 123.281,479.282C180.351,507.27 228.795,490.25 252.531,459.752C184.941,454.652 128.839,418.879 99.095,367.189C138.115,410.617 206.753,433.479 266.657,429.814C268.311,421.851 268.527,413.61 267.127,405.346C263.913,386.381 252.257,366.899 228.095,350.158C202.59,332.488 154.05,328.798 109.032,320.533C86.524,316.403 64.785,310.943 46.752,300.409C36.429,294.379 27.438,286.349 20.658,276.284L20.656,276.283Z" style="fill:white;fill-rule:nonzero;"/>
    </g>
</svg>
